Papirus/64x64/apps/com.github.avojak.iridium.svg

<?xml version="1.0" encoding="UTF-8" standalone="no"?>
<svg
   id="_图层_1"
   version="1.1"
   viewBox="0 0 64 64" width="64" height="64"
   sodipodi:docname="com.github.avojak.iridium.svg"
   xml:space="preserve"
   inkscape:version="1.4 (e7c3feb100, 2024-10-09)"
   xmlns:inkscape="http://www.inkscape.org/namespaces/inkscape"
   xmlns:sodipodi="http://sodipodi.sourceforge.net/DTD/sodipodi-0.dtd"
   xmlns="http://www.w3.org/2000/svg"
   xmlns:svg="http://www.w3.org/2000/svg"><sodipodi:namedview
     id="namedview26"
     pagecolor="#505050"
     bordercolor="#eeeeee"
     borderopacity="1"
     inkscape:showpageshadow="0"
     inkscape:pageopacity="0"
     inkscape:pagecheckerboard="0"
     inkscape:deskcolor="#505050"
     inkscape:zoom="10.6875"
     inkscape:cx="32"
     inkscape:cy="32.093567"
     inkscape:window-width="1920"
     inkscape:window-height="939"
     inkscape:window-x="0"
     inkscape:window-y="34"
     inkscape:window-maximized="1"
     inkscape:current-layer="_图层_1" /><!-- Generator: Adobe Illustrator 29.0.1, SVG Export Plug-In . SVG Version: 2.1.0 Build 192)  --><defs
     id="defs6"><style
       id="style1">
      .st0 {
        fill-opacity: .5;
      }

      .st0, .st1, .st2, .st3, .st4, .st5, .st6, .st7 {
        fill: #fff;
      }

      .st8 {
        fill: #133c9a;
      }

      .st2, .st9 {
        display: none;
      }

      .st3 {
        fill-opacity: .2;
      }

      .st4 {
        fill-opacity: .9;
      }

      .st10 {
        fill: #3370ff;
      }

      .st11 {
        fill: url(#_未命名的渐变_3);
      }

      .st12 {
        fill: url(#_未命名的渐变);
      }

      .st5 {
        fill-opacity: .3;
      }

      .st6 {
        fill-opacity: 0;
      }

      .st7 {
        fill-opacity: .7;
      }

      .st13 {
        fill: #00d6b9;
      }

      .st14 {
        fill: url(#_未命名的渐变_2);
      }
    </style><radialGradient
       id="_未命名的渐变"
       data-name="未命名的渐变"
       cx="123.9"
       cy="-40.2"
       fx="123.9"
       fy="-40.2"
       r="59.4"
       gradientTransform="translate(-26.8 25.5) scale(.6 -.7)"
       gradientUnits="userSpaceOnUse"><stop
         offset="0"
         stop-color="#db202e"
         id="stop1" /><stop
         offset="1"
         stop-color="#e01b24"
         id="stop2" /></radialGradient><radialGradient
       id="_未命名的渐变_2"
       data-name="未命名的渐变 2"
       cx="67.6"
       cy="26.8"
       fx="67.6"
       fy="26.8"
       r="105.2"
       gradientTransform="translate(-26.6 25.3) scale(.6 -.7)"
       gradientUnits="userSpaceOnUse"><stop
         offset="0"
         stop-color="#ffb648"
         id="stop3" /><stop
         offset="1"
         stop-color="#ff7800"
         stop-opacity="0"
         id="stop4" /></radialGradient><radialGradient
       id="_未命名的渐变_3"
       data-name="未命名的渐变 3"
       cx="61.7"
       cy="18.6"
       fx="61.7"
       fy="18.6"
       r="68"
       gradientTransform="translate(-26.8 25.8) scale(.6 -.7)"
       gradientUnits="userSpaceOnUse"><stop
         offset="0"
         stop-color="#c64600"
         id="stop5" /><stop
         offset="1"
         stop-color="#a51d2d"
         id="stop6" /></radialGradient></defs><path
     class="st1"
     d="M47.5,64.1H13.8c-7.6,0-13.8-6.3-13.8-13.8V13.7C0,6.2,6.2,0,13.7,0h36.6c7.5,0,13.7,6.2,13.7,13.7v36.6c0,7.5-6.2,13.7-13.7,13.7h-2.9.1Z"
     id="path6"
     style="fill:#f9f9f9;fill-opacity:1" /><g
     id="g26"
     transform="matrix(0.93483709,0,0,0.88877855,1.1963238,3.1146973)"><path
       style="opacity:0.2"
       d="m 41.15626,7.0326764 c 6.034844,-0.13224 11.683316,4.4270486 12.625666,10.4415086 0.289852,2.41806 0.29168,4.89755 0,7.315634 -0.947072,6.057762 -6.669714,10.40088 -12.745606,10.210182 -8.279084,-0.017 -16.559762,0.06002 -24.83785,0 -1.90627,-0.291964 -3.492115,-0.236132 -4.960611,1.300186 -2.0958504,1.041262 -4.8178964,0.956852 -6.7011484,-0.498214 1.18544,-1.005216 4.7864,-2.651044 3.041896,-4.165764 -2.590038,-2.65982 -3.762236,-6.46723 -3.548156,-10.152042 -0.223508,-3.6742 0.773318,-7.498374 3.324072,-10.22162 C 10.035243,8.1873764 14.178732,6.7607364 18.175062,7.0326804 H 41.15626 Z"
       id="path1" /><path
       style="opacity:0.2"
       d="m 22.84374,29.032675 c -6.034843,-0.13224 -11.683316,4.427048 -12.625665,10.441508 -0.2898522,2.41806 -0.2916796,4.897552 0,7.315636 0.947072,6.057762 6.669713,10.40088 12.745605,10.210182 8.279084,-0.017 16.559762,0.06002 24.83785,0 1.90627,-0.291964 3.492116,-0.236132 4.960612,1.300186 2.09585,1.041262 4.817896,0.956852 6.701148,-0.498214 -1.18544,-1.005216 -4.7864,-2.651044 -3.041896,-4.165764 2.590038,-2.65982 3.762236,-6.46723 3.548156,-10.152042 0.223508,-3.674202 -0.773318,-7.498376 -3.324072,-10.221622 -2.68072,-3.07517 -6.82421,-4.50181 -10.82054,-4.229866 H 22.84374 Z"
       id="path2" /><path
       style="fill:#616161"
       d="m 41.15626,6.0326748 c 6.034844,-0.13224 11.683316,4.4270482 12.625666,10.4415082 0.289852,2.41806 0.29168,4.897551 0,7.315635 C 52.834854,29.84758 47.112212,34.190698 41.03632,34 32.757236,33.983 24.476558,34.06002 16.19847,34 14.2922,33.708036 12.706355,33.763868 11.237859,35.300186 9.1420086,36.341448 6.4199626,36.257038 4.5367106,34.801972 c 1.18544,-1.005216 4.7864,-2.651044 3.041896,-4.165764 -2.590038,-2.65982 -3.762236,-6.46723 -3.548156,-10.152042 -0.223508,-3.674201 0.773318,-7.498375 3.324072,-10.221621 C 10.035243,7.1873748 14.178732,5.7607348 18.175062,6.0326788 H 41.15626 Z"
       id="path3" /><path
       style="fill:#42a9ff"
       d="m 22.84374,28.032674 c -6.034843,-0.13224 -11.683316,4.427048 -12.625665,10.441508 -0.2898522,2.41806 -0.2916796,4.897552 0,7.315636 C 11.165147,51.84758 16.887788,56.190698 22.96368,56 c 8.279084,-0.017 16.559762,0.06002 24.83785,0 1.90627,-0.291964 3.492116,-0.236132 4.960612,1.300186 2.09585,1.041262 4.817896,0.956852 6.701148,-0.498214 -1.18544,-1.005216 -4.7864,-2.651044 -3.041896,-4.165764 2.590038,-2.65982 3.762236,-6.46723 3.548156,-10.152042 0.223508,-3.674202 -0.773318,-7.498376 -3.324072,-10.221622 -2.68072,-3.07517 -6.82421,-4.50181 -10.82054,-4.229866 H 22.84374 Z"
       id="path4" /><path
       style="opacity:0.1"
       d="M 18.265625,47.000001 C 17.559188,47.035579 17,47.616447 17,48.332033 v 1.335936 c 0,0.738666 0.593366,1.332032 1.332031,1.332032 h 1.335937 C 20.406634,51.000001 21,50.406635 21,49.667969 v -1.335936 c 0,-0.738668 -0.593366,-1.332032 -1.332032,-1.332032 h -1.335937 c -0.02308,0 -0.04362,-0.0011 -0.06641,0 z m 5.999999,0 C 23.559188,47.035579 23,47.616447 23,48.332033 v 1.335936 c 0,0.738666 0.593366,1.332032 1.332032,1.332032 h 1.335936 C 26.406638,51.000001 27,50.406635 27,49.667969 v -1.335936 c 0,-0.738668 -0.593362,-1.332032 -1.332032,-1.332032 h -1.335936 c -0.02308,0 -0.04362,-0.0011 -0.0664,0 z m 6,0 C 29.559186,47.035579 29,47.616447 29,48.332033 v 1.335936 c 0,0.738666 0.593364,1.332032 1.332032,1.332032 h 1.335936 C 32.406636,51.000001 33,50.406635 33,49.667969 v -1.335936 c 0,-0.738668 -0.593364,-1.332032 -1.332032,-1.332032 h -1.335936 c -0.02308,0 -0.04362,-0.0011 -0.0664,0 z"
       id="path5" /><path
       style="fill:#235ed0"
       d="M 18.265625,46 C 17.559188,46.035578 17,46.616446 17,47.332032 v 1.335936 C 17,49.406634 17.593366,50 18.332031,50 h 1.335937 C 20.406634,50 21,49.406634 21,48.667968 V 47.332032 C 21,46.593364 20.406634,46 19.667968,46 h -1.335937 c -0.02308,0 -0.04362,-0.0011 -0.06641,0 z m 5.999999,0 C 23.559188,46.035578 23,46.616446 23,47.332032 v 1.335936 C 23,49.406634 23.593366,50 24.332032,50 h 1.335936 C 26.406638,50 27,49.406634 27,48.667968 V 47.332032 C 27,46.593364 26.406638,46 25.667968,46 h -1.335936 c -0.02308,0 -0.04362,-0.0011 -0.0664,0 z m 6,0 C 29.559186,46.035578 29,46.616446 29,47.332032 v 1.335936 C 29,49.406634 29.593364,50 30.332032,50 h 1.335936 C 32.406636,50 33,49.406634 33,48.667968 V 47.332032 C 33,46.593364 32.406636,46 31.667968,46 h -1.335936 c -0.02308,0 -0.04362,-0.0011 -0.0664,0 z"
       id="path6-1" /><path
       style="opacity:0.1;fill:#ffffff"
       d="M 17.423828,6.0019531 C 13.665919,5.9458751 9.8686441,7.3787467 7.3554688,10.261719 4.9632365,12.815723 3.9514226,16.338063 4.0175781,19.796875 4.1502551,16.669036 5.1938118,13.569555 7.3554688,11.261719 10.036189,8.1865484 14.179451,6.7612591 18.175781,7.0332031 H 41.15625 c 6.034844,-0.13224 11.68265,4.4269459 12.625,10.4414059 0.125191,1.044389 0.185837,2.100792 0.203125,3.158203 0.02228,-1.390977 -0.03844,-2.784356 -0.203125,-4.158203 C 52.8389,10.460149 47.191094,5.9009631 41.15625,6.0332031 H 18.175781 c -0.24977,-0.016996 -0.501426,-0.027511 -0.751953,-0.03125 z M 4.0175781,20.833984 c -0.011985,0.349941 -0.014931,0.700441 -0.00195,1.050782 0.00411,-0.133639 0.00788,-0.267013 0.015625,-0.400391 -0.013141,-0.21602 -0.00904,-0.433588 -0.013672,-0.650391 z m 3.8847657,11.195313 c -0.5469611,1.060925 -2.5395726,2.073302 -3.3652344,2.773437 0.2300553,0.177749 0.4721905,0.333416 0.7246094,0.470704 1.3270604,-0.898372 3.3084755,-2.086908 2.640625,-3.244141 z"
       id="path7" /><path
       style="opacity:0.2;fill:#ffffff"
       d="m 46.576172,28.001953 c -0.250527,0.0037 -0.502183,0.01425 -0.751953,0.03125 H 22.84375 c -6.034843,-0.13224 -11.682651,4.426946 -12.625,10.441406 -0.164683,1.373847 -0.2254004,2.767226 -0.203125,4.158203 0.01729,-1.057411 0.07793,-2.113814 0.203125,-3.158203 0.942349,-6.01446 6.590157,-10.573646 12.625,-10.441406 h 22.980469 c 3.99633,-0.271944 8.139592,1.153346 10.820312,4.228516 2.161657,2.307836 3.205214,5.407317 3.337891,8.535156 0.06616,-3.458812 -0.945659,-6.981152 -3.337891,-9.535156 -2.513175,-2.882972 -6.31045,-4.315844 -10.068359,-4.259766 z m 13.40625,14.832031 c -0.0046,0.216803 -5.31e-4,0.434371 -0.01367,0.650391 0.0077,0.133378 0.01151,0.266752 0.01563,0.400391 0.01298,-0.350341 0.01003,-0.700841 -0.002,-1.050782 z m -3.884766,11.195313 c -0.66785,1.157233 1.313565,2.345769 2.640625,3.244141 0.252419,-0.137288 0.494554,-0.292955 0.72461,-0.470704 -0.825662,-0.700135 -2.818274,-1.712512 -3.365235,-2.773437 z"
       id="path8" /></g></svg>

<svg xmlns="http://www.w3.org/2000/svg" width="64" height="64" version="1.1">
 <path style="opacity:0.2" d="m 41.15626,7.0326764 c 6.034844,-0.13224 11.683316,4.4270486 12.625666,10.4415086 0.289852,2.41806 0.29168,4.89755 0,7.315634 -0.947072,6.057762 -6.669714,10.40088 -12.745606,10.210182 -8.279084,-0.017 -16.559762,0.06002 -24.83785,0 -1.90627,-0.291964 -3.492115,-0.236132 -4.960611,1.300186 -2.0958504,1.041262 -4.8178964,0.956852 -6.7011484,-0.498214 1.18544,-1.005216 4.7864,-2.651044 3.041896,-4.165764 -2.590038,-2.65982 -3.762236,-6.46723 -3.548156,-10.152042 -0.223508,-3.6742 0.773318,-7.498374 3.324072,-10.22162 C 10.035243,8.1873764 14.178732,6.7607364 18.175062,7.0326804 H 41.15626 Z"/>
 <path style="opacity:0.2" d="m 22.84374,29.032675 c -6.034843,-0.13224 -11.683316,4.427048 -12.625665,10.441508 -0.2898522,2.41806 -0.2916796,4.897552 0,7.315636 0.947072,6.057762 6.669713,10.40088 12.745605,10.210182 8.279084,-0.017 16.559762,0.06002 24.83785,0 1.90627,-0.291964 3.492116,-0.236132 4.960612,1.300186 2.09585,1.041262 4.817896,0.956852 6.701148,-0.498214 -1.18544,-1.005216 -4.7864,-2.651044 -3.041896,-4.165764 2.590038,-2.65982 3.762236,-6.46723 3.548156,-10.152042 0.223508,-3.674202 -0.773318,-7.498376 -3.324072,-10.221622 -2.68072,-3.07517 -6.82421,-4.50181 -10.82054,-4.229866 H 22.84374 Z"/>
 <path style="fill:#616161" d="m 41.15626,6.0326748 c 6.034844,-0.13224 11.683316,4.4270482 12.625666,10.4415082 0.289852,2.41806 0.29168,4.897551 0,7.315635 C 52.834854,29.84758 47.112212,34.190698 41.03632,34 32.757236,33.983 24.476558,34.06002 16.19847,34 14.2922,33.708036 12.706355,33.763868 11.237859,35.300186 9.1420086,36.341448 6.4199626,36.257038 4.5367106,34.801972 c 1.18544,-1.005216 4.7864,-2.651044 3.041896,-4.165764 -2.590038,-2.65982 -3.762236,-6.46723 -3.548156,-10.152042 -0.223508,-3.674201 0.773318,-7.498375 3.324072,-10.221621 C 10.035243,7.1873748 14.178732,5.7607348 18.175062,6.0326788 H 41.15626 Z"/>
 <path style="fill:#42a9ff" d="m 22.84374,28.032674 c -6.034843,-0.13224 -11.683316,4.427048 -12.625665,10.441508 -0.2898522,2.41806 -0.2916796,4.897552 0,7.315636 C 11.165147,51.84758 16.887788,56.190698 22.96368,56 c 8.279084,-0.017 16.559762,0.06002 24.83785,0 1.90627,-0.291964 3.492116,-0.236132 4.960612,1.300186 2.09585,1.041262 4.817896,0.956852 6.701148,-0.498214 -1.18544,-1.005216 -4.7864,-2.651044 -3.041896,-4.165764 2.590038,-2.65982 3.762236,-6.46723 3.548156,-10.152042 0.223508,-3.674202 -0.773318,-7.498376 -3.324072,-10.221622 -2.68072,-3.07517 -6.82421,-4.50181 -10.82054,-4.229866 H 22.84374 Z"/>
 <path style="opacity:0.1" d="M 18.265625,47.000001 C 17.559188,47.035579 17,47.616447 17,48.332033 v 1.335936 c 0,0.738666 0.593366,1.332032 1.332031,1.332032 h 1.335937 C 20.406634,51.000001 21,50.406635 21,49.667969 v -1.335936 c 0,-0.738668 -0.593366,-1.332032 -1.332032,-1.332032 h -1.335937 c -0.02308,0 -0.04362,-0.0011 -0.06641,0 z m 5.999999,0 C 23.559188,47.035579 23,47.616447 23,48.332033 v 1.335936 c 0,0.738666 0.593366,1.332032 1.332032,1.332032 h 1.335936 C 26.406638,51.000001 27,50.406635 27,49.667969 v -1.335936 c 0,-0.738668 -0.593362,-1.332032 -1.332032,-1.332032 h -1.335936 c -0.02308,0 -0.04362,-0.0011 -0.0664,0 z m 6,0 C 29.559186,47.035579 29,47.616447 29,48.332033 v 1.335936 c 0,0.738666 0.593364,1.332032 1.332032,1.332032 h 1.335936 C 32.406636,51.000001 33,50.406635 33,49.667969 v -1.335936 c 0,-0.738668 -0.593364,-1.332032 -1.332032,-1.332032 h -1.335936 c -0.02308,0 -0.04362,-0.0011 -0.0664,0 z"/>
 <path style="fill:#235ed0" d="M 18.265625,46 C 17.559188,46.035578 17,46.616446 17,47.332032 v 1.335936 C 17,49.406634 17.593366,50 18.332031,50 h 1.335937 C 20.406634,50 21,49.406634 21,48.667968 V 47.332032 C 21,46.593364 20.406634,46 19.667968,46 h -1.335937 c -0.02308,0 -0.04362,-0.0011 -0.06641,0 z m 5.999999,0 C 23.559188,46.035578 23,46.616446 23,47.332032 v 1.335936 C 23,49.406634 23.593366,50 24.332032,50 h 1.335936 C 26.406638,50 27,49.406634 27,48.667968 V 47.332032 C 27,46.593364 26.406638,46 25.667968,46 h -1.335936 c -0.02308,0 -0.04362,-0.0011 -0.0664,0 z m 6,0 C 29.559186,46.035578 29,46.616446 29,47.332032 v 1.335936 C 29,49.406634 29.593364,50 30.332032,50 h 1.335936 C 32.406636,50 33,49.406634 33,48.667968 V 47.332032 C 33,46.593364 32.406636,46 31.667968,46 h -1.335936 c -0.02308,0 -0.04362,-0.0011 -0.0664,0 z"/>
 <path style="fill:#ffffff;opacity:0.1" d="M 17.423828 6.0019531 C 13.665919 5.9458751 9.8686441 7.3787467 7.3554688 10.261719 C 4.9632365 12.815723 3.9514226 16.338063 4.0175781 19.796875 C 4.1502551 16.669036 5.1938118 13.569555 7.3554688 11.261719 C 10.036189 8.1865484 14.179451 6.7612591 18.175781 7.0332031 L 41.15625 7.0332031 C 47.191094 6.9009631 52.8389 11.460149 53.78125 17.474609 C 53.906441 18.518998 53.967087 19.575401 53.984375 20.632812 C 54.00665 19.241835 53.945932 17.848456 53.78125 16.474609 C 52.8389 10.460149 47.191094 5.9009631 41.15625 6.0332031 L 18.175781 6.0332031 C 17.926011 6.0162066 17.674355 6.0056917 17.423828 6.0019531 z M 4.0175781 20.833984 C 4.0055934 21.183925 4.002647 21.534425 4.015625 21.884766 C 4.0197399 21.751127 4.023501 21.617753 4.03125 21.484375 C 4.0181091 21.268355 4.0222145 21.050787 4.0175781 20.833984 z M 7.9023438 32.029297 C 7.3553827 33.090222 5.3627712 34.102599 4.5371094 34.802734 C 4.7671647 34.980483 5.0092999 35.13615 5.2617188 35.273438 C 6.5887792 34.375066 8.5701943 33.18653 7.9023438 32.029297 z"/>
 <path style="fill:#ffffff;opacity:0.2" d="M 46.576172 28.001953 C 46.325645 28.005692 46.073989 28.016207 45.824219 28.033203 L 22.84375 28.033203 C 16.808907 27.900963 11.161099 32.460149 10.21875 38.474609 C 10.054067 39.848456 9.9933496 41.241835 10.015625 42.632812 C 10.032913 41.575401 10.093559 40.518998 10.21875 39.474609 C 11.161099 33.460149 16.808907 28.900963 22.84375 29.033203 L 45.824219 29.033203 C 49.820549 28.761259 53.963811 30.186549 56.644531 33.261719 C 58.806188 35.569555 59.849745 38.669036 59.982422 41.796875 C 60.048577 38.338063 59.036763 34.815723 56.644531 32.261719 C 54.131356 29.378747 50.334081 27.945875 46.576172 28.001953 z M 59.982422 42.833984 C 59.977785 43.050787 59.981891 43.268355 59.96875 43.484375 C 59.976499 43.617753 59.98026 43.751127 59.984375 43.884766 C 59.997353 43.534425 59.994407 43.183925 59.982422 42.833984 z M 56.097656 54.029297 C 55.429806 55.18653 57.411221 56.375066 58.738281 57.273438 C 58.9907 57.13615 59.232835 56.980483 59.462891 56.802734 C 58.637229 56.102599 56.644617 55.090222 56.097656 54.029297 z"/>
</svg>
